build/svg/cmd/32/euroconverter.svg

<?xml version="1.0" encoding="UTF-8" standalone="no"?>
<svg
   xmlns:dc="http://purl.org/dc/elements/1.1/"
   xmlns:cc="http://creativecommons.org/ns#"
   xmlns:rdf="http://www.w3.org/1999/02/22-rdf-syntax-ns#"
   xmlns:svg="http://www.w3.org/2000/svg"
   xmlns="http://www.w3.org/2000/svg"
   xmlns:sodipodi="http://sodipodi.sourceforge.net/DTD/sodipodi-0.dtd"
   xmlns:inkscape="http://www.inkscape.org/namespaces/inkscape"
   viewBox="0 0 32 32"
   version="1.1"
   id="svg4"
   sodipodi:docname="euroconverter.svg"
   inkscape:export-filename="/home/jupiter007/Libreoffice yaru theme fullcolor/build/cmd/32/euroconverter.png"
   inkscape:export-xdpi="96"
   inkscape:export-ydpi="96"
   inkscape:version="0.92.5 (2060ec1f9f, 2020-04-08)">
  <metadata
     id="metadata10">
    <rdf:RDF>
      <cc:Work
         rdf:about="">
        <dc:format>image/svg+xml</dc:format>
        <dc:type
           rdf:resource="http://purl.org/dc/dcmitype/StillImage" />
      </cc:Work>
    </rdf:RDF>
  </metadata>
  <defs
     id="defs8" />
  <sodipodi:namedview
     pagecolor="#ffffff"
     bordercolor="#666666"
     borderopacity="1"
     objecttolerance="10"
     gridtolerance="10"
     guidetolerance="10"
     inkscape:pageopacity="0"
     inkscape:pageshadow="2"
     inkscape:window-width="1920"
     inkscape:window-height="1011"
     id="namedview6"
     showgrid="true"
     inkscape:zoom="20.85965"
     inkscape:cx="5.5141842"
     inkscape:cy="14.652151"
     inkscape:window-x="0"
     inkscape:window-y="32"
     inkscape:window-maximized="1"
     inkscape:current-layer="svg4">
    <inkscape:grid
       type="xygrid"
       id="grid817" />
  </sodipodi:namedview>
  <path
     inkscape:connector-curvature="0"
     style="opacity:0.6;fill:#000000;stroke:#000000;stroke-width:3;stroke-linejoin:round;stroke-miterlimit:4;stroke-dasharray:none"
     id="path819"
     d="M 21,3.5 C 14.312719,3.5 8.7766133,7.827029 7.703125,13.5 H 4.5 v 1 H 7.5566406 C 7.5258691,14.830629 7.5,15.16231 7.5,15.5 c 0,0.33769 0.025869,0.669371 0.056641,1 H 4.5 v 1 h 3.203125 c 1.0734883,5.672971 6.609594,10 13.296875,10 1.901905,-0.0036 3.781499,-0.364312 5.515625,-1.058594 L 26.130859,25.515625 C 24.519073,26.159759 22.770199,26.495287 21,26.5 14.873743,26.5 9.786899,22.61878 8.7167969,17.5 H 17.5 v -1 H 8.5566406 C 8.5228327,16.170252 8.5,15.837495 8.5,15.5 c 0,-0.337495 0.022833,-0.670252 0.056641,-1 H 19.5 v -1 H 8.7167969 C 9.786899,8.3812197 14.873743,4.5 21,4.5 c 1.769877,0.00349 3.518737,0.3376796 5.130859,0.9804688 L 26.513672,4.5625 C 24.780477,3.8671126 22.901563,3.5050406 21,3.5 Z" />
  <path
     d="M 21,3.5 C 14.312719,3.5 8.7766133,7.827029 7.703125,13.5 H 4.5 v 1 H 7.5566406 C 7.5258691,14.830629 7.5,15.16231 7.5,15.5 c 0,0.33769 0.025869,0.669371 0.056641,1 H 4.5 v 1 h 3.203125 c 1.0734883,5.672971 6.609594,10 13.296875,10 1.901905,-0.0036 3.781499,-0.364312 5.515625,-1.058594 L 26.130859,25.515625 C 24.519073,26.159759 22.770199,26.495287 21,26.5 14.873743,26.5 9.786899,22.61878 8.7167969,17.5 H 17.5 v -1 H 8.5566406 C 8.5228327,16.170252 8.5,15.837495 8.5,15.5 c 0,-0.337495 0.022833,-0.670252 0.056641,-1 H 19.5 v -1 H 8.7167969 C 9.786899,8.3812197 14.873743,4.5 21,4.5 c 1.769877,0.00349 3.518737,0.3376796 5.130859,0.9804688 L 26.513672,4.5625 C 24.780477,3.8671126 22.901563,3.5050406 21,3.5 Z"
     id="path2"
     style="fill:#ffffff;stroke:#ffffff"
     inkscape:connector-curvature="0" />
</svg>

<svg xmlns="http://www.w3.org/2000/svg" viewBox="0 0 32 32"><path d="M21 3.5c-6.687 0-12.223 4.327-13.297 10H4.5v1h3.057c-.031.33-.057.662-.057 1 0 .338.026.67.057 1H4.5v1h3.203c1.074 5.673 6.61 10 13.297 10a14.943 14.943 0 005.516-1.059l-.385-.925c-1.612.644-3.36.98-5.131.984-6.126 0-11.213-3.881-12.283-9H17.5v-1H8.557a9.786 9.786 0 01-.057-1c0-.337.023-.67.057-1H19.5v-1H8.717c1.07-5.119 6.157-9 12.283-9 1.77.003 3.519.338 5.13.98l.384-.918A14.94 14.94 0 0021 3.5z" opacity=".6" stroke="#000" stroke-width="3" stroke-linejoin="round"/><path d="M21 3.5c-6.687 0-12.223 4.327-13.297 10H4.5v1h3.057c-.031.33-.057.662-.057 1 0 .338.026.67.057 1H4.5v1h3.203c1.074 5.673 6.61 10 13.297 10a14.943 14.943 0 005.516-1.059l-.385-.925c-1.612.644-3.36.98-5.131.984-6.126 0-11.213-3.881-12.283-9H17.5v-1H8.557a9.786 9.786 0 01-.057-1c0-.337.023-.67.057-1H19.5v-1H8.717c1.07-5.119 6.157-9 12.283-9 1.77.003 3.519.338 5.13.98l.384-.918A14.94 14.94 0 0021 3.5z" fill="#fff" stroke="#fff"/></svg>
